!!!COM: Robert Franz
!!!CNT: Deutscher
!!!TXO: Deutsche 
!!!OTL: Fruhlings Ankunft
!!!OPS: Op. 23
!!!ONM: No. 5
!!!ONB: Original key: E major
!!!LYR: Folk-song
!!!ENC: Brian Bice
!!!YOR: Vocal Album, G. Schirmer, Inc., 1907
!!!ODT: 1870/
!!NB: Vocal melody and text only encoded.
**kern	**silbe
*clefG2	*
*k[f#c#]	*
*M6/8	*
=0	=0
4.r	.
4r	.
{8A	{Der
=1	=1
4d	Lenz
8f#	ist
4a	an-
8dd	-ge-
=2	=2
(4cc#	-kom-
8b)	|
4a}	-men!}
8r	.
=3	=3
{8g#	{Habt
8g#	ihr
8e	es
(8a	nicht
8ee)	|
8dd	ver-
=4	=4
(4cc#	-nom-
8b)	|
4a}	-men?}
{8b	{Es
=5	=5
4ccn	sa-
8a	-gen's
(8fn	euch
aq	|
8g)	|
8f	die
=6	=6
4dd	Vo2-
8ccn	-ge-
4b-}	-lein,}
{8dd	{es
=7	=7
4ffn	sa-
8dd	-gen's
(8a	euch
ccnq	|
8b-)	|
8a	die
=8	=8
4ee	Blu2-
8g	-me-
4a}	-lein:}
{8b-	{der
=9	=9
4a	Lenz
8g	ist
(8f#	an-
8a)	|
8dd	-ge-
=10	=10
(4ff#	-kom-
8ee)	|
4dd}	-men!}
{8A	{Ihr
=11	=11
4d	seht
8f#	es
4a	an
8dd	den
=12	=12
(4cc#	Fel-
8b)	|
4a}	-dern,}
{8dd	{ihr
=13	=13
4g#	ho2rt
8b	es
(8e	in
8ee)	|
8d	den
=14	=14
(4cc#	Wa2l-
8b)	|
4a}	-dern;}
{8b	{der
=15	=15
4ccn	Ku-
8a	-kuk
(8fn	ruft,
aq	|
8g)	|
8fn	der
=16	=16
4dd	Fin-
8ccn	-ke
4b-}	scha2gt,}
{8dd	{es
=17	=17
4ffn	ju-
8dd	-belt,
(8a	was
ccnq	|
8b-)	|
8a	sich
=18	=18
4ee	froh
8g	be-
4a}	-wegt:}
{8b-	{der
=19	=19
4a	Lenz
8g	ist
(8f#	an-
8a)	|
8dd	-ge-
=20	=20
(4ff#	-kom-
8ee)	|
4dd}	-men!}
{8A	{Hier
=21	=21
4d	Blu2m-
8f#	-lein
4a	auf
8dd	der
=22	=22
(4cc#	Hai-
8b)	|
4a}	-de,}
{8dd	{dort
=23	=23
4g#	Scha2f-
8b	-lein
(8e	auf
8ee)	|
8dd	der
=24	=24
(4cc#	Wei-
8b)	|
4a}	-de.}
{8b	{Ach
=25	=25
4ccn	seht
8a	doch,
(8fn	wie
aq	|
8g)	|
8fn	sich
=26	=26
4dd	al-
8ccn	-les
4b-}	freut!}
{8dd	{Es
=27	=27
4ffn	hat
8dd	die
(8a	Welt
ccnq	|
8b-)	|
8a	sich
=28	=28
4ee	scho2n
8g	er-
4a}	-neut:}
{8b-	{der
=29	=29
4a	Lenz
8g	ist
(8f#	an-
8a)	|
8dd	-ge-
=30	=30
4.ff#	-kom-
4.ee	|
=31	=31
4dd}	-men!}
8r	.
4r	.
*-	*-
